!!!id: bhatk3205s
!!!vol: 3
!!!page: 205
!!!sthayee: Tere sir kusum
!!!raag: bihag
!!!taal: teentaal
!!!tempo: madhyalaya
**kern
!!data: // >RS  S  >MG  M/  P  P  >S'N  N/  S'  S'  S'  S'/  >S'[N  -  P]  P/
==1
dq
4c
4c
fq
4e
4f
=
4g
4g
ccq
4b
4b
=
4cc
4cc
4cc
4cc
=
ccq
2bH
4gh
4g
!!data: // >mP  -  P  >PG  -  M  >RG  M/  P  P  >PG  M/  [G  -  S]  -/
==2
f#q
2g
4g
gq
2e
4f
dq
4e
4f
=
4g
4g
gq
4e
4f
=
2eH
2ch
!!data: // >SN,  -  P,  P,/  >SN,  N,  S  S/  >N,S  P  >PG  M/  G  G  S  S/
==3
cq
2B
4G
4G
=
cq
4B
4B
4c
4c
=
Bq
4c
4g
gq
4e
4f
=
4e
4e
4c
4c
!!data: // >MG  M  P  N/  S'  ND  P  P/  >mP  -  PG  M/  [G  -  S]  -/
==4
fq
4e
4f
4g
4b
=
4cc
8b
8a
4g
4g
=
f#q
2g
8g
8e
4f
=
2eH
2ch
==
*-
